X: 11
T: Abbey, The
Z: Aberfoyle Whistler
S: https://thesession.org/tunes/477#setting48694
R: reel
M: 4/4
L: 1/8
K: Ador
A3 B AAGE|AAGA BddB|A3 B AAGE|~G3 A BddB|
A3 B AAGE|AAGA Bd d2|edBA AGed|~G3 A BGB/^c/d||
e ~g3 ~a3 b|ggab aged|e ~g3 aaga|agab ge d2|
e ~g3 ag b2|agbg aged|e ~g3 a2 ga|bgab aged||

